.local/share/icons/Gruvbox-Plus-Dark/panel/16/clipboard.svg

<svg width="16" height="16" version="1.1" xmlns="http://www.w3.org/2000/svg">
  <defs>
    <style id="current-color-scheme" type="text/css">.ColorScheme-Text { color:#ebdbb2; } .ColorScheme-Highlight { color:#458588; } .ColorScheme-NeutralText { color:#fe8019; } .ColorScheme-PositiveText { color:#689d6a; } .ColorScheme-NegativeText { color:#fb4934; }</style>
  </defs>
  <path class="ColorScheme-Text" d="m12.87 2.023-0.362-0.3098c-0.538-0.46-1.215-0.7133-1.906-0.7133-0.9236 0-1.785 0.4335-2.364 1.189l-5.567 7.274c-0.5101 0.666-0.7436 1.502-0.6586 2.356 0.0851 0.852 0.4784 1.618 1.109 2.157l0.3622 0.31c0.5375 0.461 1.214 0.714 1.906 0.714 0.1068 0 0.2149-5e-3 0.3212-0.017 0.8013-0.09 1.523-0.502 2.03-1.157 0.0017-2e-3 0.0026-4e-3 3.756-4.907 0.669-0.8733 0.54-2.159-0.285-2.866l-0.19-0.1618c-0.342-0.2921-0.771-0.4529-1.211-0.4529-0.5863 0-1.133 0.2752-1.5 0.7551l-3.749 4.898c-0.2449 0.321-0.198 0.791 0.1048 1.05 0.1253 0.108 0.2829 0.167 0.4439 0.167 0.2144 0 0.4147-0.101 0.5496-0.277l3.749-4.898c0.0977-0.1284 0.2434-0.2019 0.4003-0.2019 0.1191 0 0.2304 0.0418 0.3234 0.1208l0.189 0.1624c0.107 0.091 0.174 0.2214 0.189 0.3658 0.013 0.1452-0.026 0.287-0.113 0.3999l-3.744 4.892c-0.3092 0.403-0.7695 0.635-1.263 0.635-0.3698 0-0.7318-0.135-1.019-0.381l-0.3622-0.31c-0.3358-0.287-0.5465-0.696-0.5918-1.152-0.0455-0.456 0.0796-0.903 0.3523-1.26l5.568-7.273c0.3094-0.4039 0.7698-0.6356 1.264-0.6356 0.37 0 0.732 0.1354 1.019 0.3811l0.362 0.3098c0.695 0.5952 0.803 1.678 0.24 2.413-0.118 0.1551-0.173 0.3497-0.153 0.5482 0.02 0.1983 0.111 0.3767 0.259 0.5021 0.125 0.1072 0.283 0.1663 0.443 0.1663 0.215 0 0.415-0.1009 0.55-0.2769 0.509-0.6655 0.742-1.502 0.657-2.356-0.086-0.8545-0.479-1.621-1.109-2.159z" fill="currentColor"/>
</svg>

<svg xmlns="http://www.w3.org/2000/svg" width="16" height="16" version="1.1">
 <defs>
  <style id="current-color-scheme" type="text/css">
   .ColorScheme-Text { color:#ebdbb2; } .ColorScheme-Highlight { color:#458588; }
  </style>
 </defs>
 <path style="fill:currentColor" class="ColorScheme-Text" d="M 12.874,2.0231 12.512,1.7133 C 11.974,1.2533 11.297,1 10.606,1 9.6824,1 8.821,1.4335 8.2425,2.1892 L 2.6757,9.463 C 2.1656,10.129 1.9321,10.965 2.0171,11.819 2.1022,12.671 2.4955,13.437 3.1258,13.976 L 3.488,14.286 C 4.0255,14.747 4.7025,15 5.3944,15 5.5012,15 5.6093,14.995 5.7156,14.983 6.5169,14.893 7.2388,14.481 7.7453,13.826 7.747,13.824 7.7479,13.822 11.501,8.9188 12.17,8.0455 12.041,6.7598 11.216,6.0529 L 11.026,5.8911 C 10.684,5.599 10.255,5.4382 9.8153,5.4382 9.229,5.4382 8.6822,5.7134 8.3153,6.1933 L 4.5662,11.091 C 4.3213,11.412 4.3682,11.882 4.671,12.141 4.7963,12.249 4.9539,12.308 5.1149,12.308 5.3293,12.308 5.5296,12.207 5.6645,12.031 L 9.4133,7.1329 C 9.511,7.0045 9.6567,6.931 9.8136,6.931 9.9327,6.931 10.044,6.9728 10.137,7.0518 L 10.326,7.2142 C 10.433,7.3052 10.5,7.4356 10.515,7.58 10.528,7.7252 10.489,7.867 10.402,7.9799 L 6.6583,12.872 C 6.3491,13.275 5.8888,13.507 5.3955,13.507 5.0257,13.507 4.6637,13.372 4.3764,13.126 L 4.0142,12.816 C 3.6784,12.529 3.4677,12.12 3.4224,11.664 3.3769,11.208 3.502,10.761 3.7747,10.404 L 9.3422,3.1308 C 9.6516,2.7269 10.112,2.4952 10.606,2.4952 10.976,2.4952 11.338,2.6306 11.625,2.8763 L 11.987,3.1861 C 12.682,3.7813 12.79,4.8637 12.227,5.5991 12.109,5.7542 12.054,5.9488 12.074,6.1473 12.094,6.3456 12.185,6.524 12.333,6.6494 12.458,6.7566 12.616,6.8157 12.776,6.8157 12.991,6.8157 13.191,6.7148 13.326,6.5388 13.835,5.8733 14.068,5.0368 13.983,4.1825 13.897,3.328 13.504,2.5614 12.874,2.0231 Z"/>
</svg>
